X:1
T:Title
%%score { 1 | 2 }
L:1/8
M:3/4
K:F
V:1 treble nm="Grand Piano"
V:2 bass 
V:1
 z2 z2[Q:1/4=84] [CFA][CFA] | [CFc]3 [CF] [DFG][DFA] | [B,EG]2 [A,F]2 [A,F][A,F] | %3
 [B,FB]3 [B,FB] AG |[M:2/4] A4 |[M:1/4] AA |[M:3/4] GG A2 =B2 | [Gd]2 [Cc]2 [Gc][Gc] | %8
 [Ae][Ad] [Gc]2 [F=B]2 |[M:2/4] [Ec]4 |[M:1/4] cc |[M:3/4] c3 G AB | B2 A2 ed | c3 G AB | %14
[M:2/4] B2 A2 |[M:1/4] [FA][FA] |[M:3/4] [FB][DB] [Gc]2 c2 | d2 f2 [Fe][Fd] | %18
 [CFc][CF] [B,FA]2 [B,EG]2 |[M:2/4] [A,F]4 |] %20
V:2
 z2 z2 F,F, | A,,3 A,, B,,B,, | C,2 F,2 F,F, | D,3 D, [E,B,C][E,B,C] |[M:2/4] [F,A,C]4 | %5
[M:1/4] [F,CF][F,CF] |[M:3/4] [F,=B,D][F,B,D] [F,A,D]2 [F,G,D]2 | [E,G,]2 [E,G,]2 [E,C][E,C] | %8
 [F,^C][F,D] [G,E]2 [G,D]2 |[M:2/4] [C,C]4 |[M:1/4][K:treble] [CE][CE] | %11
[M:3/4] [B,CE]3 [B,CE] [A,CE][G,CE] | [F,CF]2 [F,CF]2 [A,CF][A,CF] | [B,CE]3 [B,CE] [A,CE][G,CE] | %14
[M:2/4] [F,CF]4 |[M:1/4] [_E,C][E,C] |[M:3/4] [D,B,][G,B,] [_E,B,]2[K:treble] [F,A,F]2 | %17
 [B,F]2 [B,DF]2[K:bass] [B,,B,][B,,B,] | A,,A,, G,,2 C,2 |[M:2/4] F,4 |] %20

